X:3173
T:Colección Feij\'oo: N\'umero 25
O:Galicia (Spain)
B:Libro Aires da Terra, de J.L. Calle
Z:Transcrito por Jos\'e J. Presedo
Z:Covertido de Midi a abc por Antonio-Nil
N:http://www.arrakis.es/~jpresedo/
M: 4/4
L: 1/8
Q:1/4=50
K:G % 1 sharps
z3A/2F<DE/2 FG|AA/2F/2 DF EE/2F/2 G/2F/2G/2B/2|A3/2F/2 DA/2F<DE/2 FG|AA/2F/2 DF EE/2F/2 G/2F/2G/2E/2|
D3A/2F<DE/2 FG|AA/2F/2 DF EE/2F/2 G/2F/2G/2B/2|A3/2F/2 DA/2F<DE/2 FG|AA/2F/2 DF EE/2F/2 G/2F/2G/2E/2|
D3F/2G<Ad/2 cB|AA/2F/2 A/2F/2A/2F/2 GG/2E/2 G/2E/2G/2E/2|F/2G/2F/2E/2 D/2E/2F/2G<Ad/2 cB|AA/2F/2 A/2F/2A/2F/2 GG/2E/2 G/2E/2G/2E/2|
D3F/2G<Ad/2 cB|AA/2F/2 A/2F/2A/2F/2 GG/2E/2 G/2E/2G/2E/2|F/2G/2F/2E/2 D/2E/2F/2G<Ad/2 cB|AA/2F/2 A/2F/2A/2F/2 GG/2E/2 G/2E/2G/2E/2|
D3A/2F<DE/2 FG|AA/2F/2 DF EE/2F/2 G/2F/2G/2B/2|A3/2F/2 DA/2F<DE/2 FG|AA/2F/2 DF EE/2F/2 G/2F/2G/2E/2|
D3A/2F<DE/2 FG|AA/2F/2 DF EE/2F/2 G/2F/2G/2B/2|A3/2F/2 DA/2F<DE/2 FG|AA/2F/2 DF EE/2F/2 G/2F/2G/2E/2|
D3F/2G<Ad/2 cB|AA/2F/2 A/2F/2A/2F/2 GG/2E/2 G/2E/2G/2E/2|F/2G/2F/2E/2 D/2E/2F/2G<Ad/2 cB|AA/2F/2 A/2F/2A/2F/2 GG/2E/2 G/2E/2G/2E/2|
D3F/2G<Ad/2 cB|AA/2F/2 A/2F/2A/2F/2 GG/2E/2 G/2E/2G/2E/2|F/2G/2F/2E/2 D/2E/2F/2G<Ad/2 cB|AA/2F/2 A/2F/2A/2F/2 GG/2E/2 G/2E/2G/2E/2|
D2 


